flaticon/army-badges/target-19.svg

<svg xmlns="http://www.w3.org/2000/svg" width="32" height="32" viewBox="0 0 24 24">
    <path d="M 12 0 C 5.398438 0 0 5.359375 0 12 C 0 18.640625 5.398438 24 12 24 C 18.601562 24 24 18.601562 24 12 C 24 5.398438 18.601562 0 12 0 Z M 12 23.199219 C 5.839844 23.199219 0.800781 18.160156 0.800781 12 C 0.800781 5.839844 5.839844 0.800781 12 0.800781 C 18.160156 0.800781 23.199219 5.839844 23.199219 12 C 23.199219 18.160156 18.160156 23.199219 12 23.199219 Z M 12 23.199219"/>
    <path d="M 12 1.601562 C 6.28125 1.601562 1.601562 6.28125 1.601562 12 C 1.601562 17.761719 6.28125 22.398438 12 22.398438 C 17.71875 22.398438 22.398438 17.761719 22.398438 12 C 22.398438 6.28125 17.71875 1.601562 12 1.601562 Z M 21.589844 11.601562 L 18.398438 11.601562 L 18.398438 6 C 18.398438 5.761719 18.238281 5.601562 18 5.601562 L 12.398438 5.601562 L 12.398438 2.410156 C 17.363281 2.613281 21.386719 6.636719 21.589844 11.601562 Z M 16 12.398438 L 17.601562 12.398438 L 17.601562 17.601562 L 12.398438 17.601562 L 12.398438 16 C 12.398438 15.761719 12.238281 15.601562 12 15.601562 C 11.761719 15.601562 11.601562 15.761719 11.601562 16 L 11.601562 17.601562 L 6.398438 17.601562 L 6.398438 12.398438 L 8 12.398438 C 8.238281 12.398438 8.398438 12.238281 8.398438 12 C 8.398438 11.761719 8.238281 11.601562 8 11.601562 L 6.398438 11.601562 L 6.398438 6.398438 L 11.601562 6.398438 L 11.601562 8 C 11.601562 8.238281 11.761719 8.398438 12 8.398438 C 12.238281 8.398438 12.398438 8.238281 12.398438 8 L 12.398438 6.398438 L 17.601562 6.398438 L 17.601562 11.601562 L 16 11.601562 C 15.761719 11.601562 15.601562 11.761719 15.601562 12 C 15.601562 12.238281 15.761719 12.398438 16 12.398438 Z M 11.601562 2.410156 L 11.601562 5.601562 L 6 5.601562 C 5.761719 5.601562 5.601562 5.761719 5.601562 6 L 5.601562 11.601562 L 2.410156 11.601562 C 2.613281 6.636719 6.636719 2.613281 11.601562 2.410156 Z M 2.410156 12.398438 L 5.601562 12.398438 L 5.601562 18 C 5.601562 18.238281 5.761719 18.398438 6 18.398438 L 11.601562 18.398438 L 11.601562 21.589844 C 6.636719 21.386719 2.613281 17.363281 2.410156 12.398438 Z M 12.398438 21.589844 L 12.398438 18.398438 L 18 18.398438 C 18.238281 18.398438 18.398438 18.238281 18.398438 18 L 18.398438 12.398438 L 21.589844 12.398438 C 21.386719 17.363281 17.363281 21.386719 12.398438 21.589844 Z M 12.398438 21.589844"/>
    <path d="M 13.601562 11.601562 L 12.398438 11.601562 L 12.398438 10.398438 C 12.398438 10.160156 12.238281 10 12 10 C 11.761719 10 11.601562 10.160156 11.601562 10.398438 L 11.601562 11.601562 L 10.398438 11.601562 C 10.160156 11.601562 10 11.761719 10 12 C 10 12.238281 10.160156 12.398438 10.398438 12.398438 L 11.601562 12.398438 L 11.601562 13.601562 C 11.601562 13.839844 11.761719 14 12 14 C 12.238281 14 12.398438 13.839844 12.398438 13.601562 L 12.398438 12.398438 L 13.601562 12.398438 C 13.839844 12.398438 14 12.238281 14 12 C 14 11.761719 13.839844 11.601562 13.601562 11.601562 Z M 13.601562 11.601562"/>
</svg>

<svg xmlns="http://www.w3.org/2000/svg" width="32" height="32" viewBox="0 0 24 24">
    <path d="M12 0C5.398 0 0 5.36 0 12s5.398 12 12 12 12-5.398 12-12S18.602 0 12 0zm0 23.2C5.84 23.2.8 18.16.8 12 .8 5.84 5.84.8 12 .8 18.16.8 23.2 5.84 23.2 12c0 6.16-5.04 11.2-11.2 11.2zm0 0"/>
    <path d="M12 1.602C6.281 1.602 1.602 6.282 1.602 12c0 5.762 4.68 10.398 10.398 10.398 5.719 0 10.398-4.636 10.398-10.398 0-5.719-4.68-10.398-10.398-10.398zm9.59 10h-3.192V6c0-.238-.16-.398-.398-.398h-5.602V2.41c4.965.203 8.989 4.227 9.192 9.192zm-5.59.796h1.602v5.204h-5.204V16c0-.238-.16-.398-.398-.398-.238 0-.398.16-.398.398v1.602H6.398v-5.204H8c.238 0 .398-.16.398-.398 0-.238-.16-.398-.398-.398H6.398V6.398h5.204V8c0 .238.16.398.398.398.238 0 .398-.16.398-.398V6.398h5.204v5.204H16c-.238 0-.398.16-.398.398 0 .238.16.398.398.398zM11.602 2.41v3.192H6c-.238 0-.398.16-.398.398v5.602H2.41c.203-4.965 4.227-8.989 9.192-9.192zM2.41 12.398h3.192V18c0 .238.16.398.398.398h5.602v3.192c-4.965-.203-8.989-4.227-9.192-9.192zm9.988 9.192v-3.192H18c.238 0 .398-.16.398-.398v-5.602h3.192c-.203 4.965-4.227 8.989-9.192 9.192zm0 0"/>
    <path d="M13.602 11.602h-1.204v-1.204c0-.238-.16-.398-.398-.398-.238 0-.398.16-.398.398v1.204h-1.204c-.238 0-.398.16-.398.398 0 .238.16.398.398.398h1.204v1.204c0 .238.16.398.398.398.238 0 .398-.16.398-.398v-1.204h1.204c.238 0 .398-.16.398-.398 0-.238-.16-.398-.398-.398zm0 0"/>
</svg>
